src/public/icons/Instagram.svg

<svg width="38" height="38" viewBox="0 0 38 38" fill="none" xmlns="http://www.w3.org/2000/svg">
<circle cx="19.001" cy="19" r="18" stroke="#313131"/>
<mask id="mask0_4873_4682" style="mask-type:alpha" maskUnits="userSpaceOnUse" x="1" y="1" width="36" height="36">
<path fill-rule="evenodd" clip-rule="evenodd" d="M1 19C1 9.05888 9.05888 1 19 1C28.9411 1 37 9.05888 37 19C37 28.9411 28.9411 37 19 37C9.05888 37 1 28.9411 1 19Z" fill="white"/>
</mask>
<g mask="url(#mask0_4873_4682)">
<path fill-rule="evenodd" clip-rule="evenodd" d="M19.0023 9.39844C16.395 9.39844 16.0678 9.40984 15.0438 9.45644C14.0218 9.50324 13.3242 9.66504 12.7138 9.90244C12.0824 10.1476 11.5468 10.4756 11.0132 11.0095C10.4792 11.5431 10.1512 12.0787 9.90517 12.7099C9.66717 13.3205 9.50517 14.0183 9.45917 15.0399C9.41337 16.0639 9.40137 16.3913 9.40137 18.9985C9.40137 21.6058 9.41297 21.932 9.45937 22.956C9.50637 23.978 9.66817 24.6756 9.90537 25.286C10.1508 25.9174 10.4788 26.453 11.0126 26.9866C11.546 27.5206 12.0816 27.8494 12.7126 28.0946C13.3234 28.332 14.0212 28.4938 15.043 28.5406C16.067 28.5872 16.394 28.5986 19.0011 28.5986C21.6085 28.5986 21.9347 28.5872 22.9587 28.5406C23.9807 28.4938 24.6791 28.332 25.2899 28.0946C25.9211 27.8494 26.4559 27.5206 26.9893 26.9866C27.5234 26.453 27.8514 25.9174 28.0974 25.2862C28.3334 24.6756 28.4954 23.9778 28.5434 22.9562C28.5894 21.9322 28.6014 21.6058 28.6014 18.9985C28.6014 16.3913 28.5894 16.0641 28.5434 15.0401C28.4954 14.0181 28.3334 13.3205 28.0974 12.7101C27.8514 12.0787 27.5234 11.5431 26.9893 11.0095C26.4553 10.4754 25.9213 10.1474 25.2893 9.90244C24.6773 9.66504 23.9793 9.50324 22.9573 9.45644C21.9333 9.40984 21.6073 9.39844 18.9993 9.39844H19.0023ZM18.1407 11.1274C18.3963 11.127 18.6815 11.1274 19.0019 11.1274C21.5651 11.1274 21.8689 11.1366 22.8812 11.1826C23.8172 11.2254 24.3252 11.3818 24.6636 11.5132C25.1116 11.6872 25.431 11.8952 25.7668 12.2312C26.1028 12.5672 26.3108 12.8872 26.4852 13.3352C26.6166 13.6732 26.7732 14.1812 26.8158 15.1172C26.8618 16.1293 26.8718 16.4333 26.8718 18.9953C26.8718 21.5573 26.8618 21.8613 26.8158 22.8733C26.773 23.8093 26.6166 24.3173 26.4852 24.6553C26.3112 25.1033 26.1028 25.4223 25.7668 25.7582C25.4308 26.0942 25.1118 26.3022 24.6636 26.4762C24.3256 26.6082 23.8172 26.7642 22.8812 26.807C21.8691 26.853 21.5651 26.863 19.0019 26.863C16.4385 26.863 16.1347 26.853 15.1227 26.807C14.1867 26.7638 13.6787 26.6074 13.3401 26.476C12.8921 26.302 12.5721 26.094 12.236 25.758C11.9 25.4219 11.692 25.1027 11.5176 24.6545C11.3862 24.3165 11.2296 23.8085 11.187 22.8725C11.141 21.8605 11.1318 21.5565 11.1318 18.9929C11.1318 16.4293 11.141 16.1269 11.187 15.1148C11.2298 14.1788 11.3862 13.6708 11.5176 13.3324C11.6916 12.8844 11.9 12.5644 12.236 12.2284C12.5721 11.8924 12.8921 11.6844 13.3401 11.51C13.6785 11.378 14.1867 11.222 15.1227 11.179C16.0083 11.139 16.3515 11.127 18.1407 11.125V11.1274ZM24.1256 12.7231C23.4896 12.7231 22.9736 13.2385 22.9736 13.8747C22.9736 14.5107 23.4896 15.0267 24.1256 15.0267C24.7617 15.0267 25.2777 14.5107 25.2777 13.8747C25.2777 13.2387 24.7617 12.7227 24.1256 12.7227V12.7231ZM19.0013 14.0703C16.2787 14.0703 14.0713 16.2777 14.0713 19.0004C14.0713 21.723 16.2787 23.9294 19.0013 23.9294C21.724 23.9294 23.9306 21.723 23.9306 19.0004C23.9306 16.2777 21.7238 14.0703 19.0011 14.0703H19.0013ZM19.0018 15.8008C20.769 15.8008 22.2018 17.2334 22.2018 19.0008C22.2018 20.768 20.769 22.2008 19.0018 22.2008C17.2344 22.2008 15.8018 20.768 15.8018 19.0008C15.8018 17.2334 17.2344 15.8008 19.0018 15.8008Z" fill="#313131"/>
</g>
</svg>

<svg version="1.1" xmlns="http://www.w3.org/2000/svg" xmlns:xlink="http://www.w3.org/1999/xlink" x="0px"
     y="0px"
     viewBox="0 0 38 38" style="enable-background:new 0 0 38 38;" xml:space="preserve">
	<path d="M19,37.5C8.8,37.5,0.5,29.2,0.5,19S8.8,0.5,19,0.5S37.5,8.8,37.5,19S29.2,37.5,19,37.5z M19,1.5C9.4,1.5,1.5,9.4,1.5,19
		S9.4,36.5,19,36.5S36.5,28.6,36.5,19S28.7,1.5,19,1.5z" fill="currentColor"/>
    <path fill="currentColor" class="st2" d="M19,9.4c-2.6,0-2.9,0-4,0.1c-1,0-1.7,0.2-2.3,0.4c-0.6,0.2-1.2,0.6-1.7,1.1c-0.5,0.5-0.9,1.1-1.1,1.7
			C9.7,13.3,9.5,14,9.5,15c0,1-0.1,1.4-0.1,4c0,2.6,0,2.9,0.1,4c0,1,0.2,1.7,0.4,2.3c0.2,0.6,0.6,1.2,1.1,1.7
			c0.5,0.5,1.1,0.9,1.7,1.1c0.6,0.2,1.3,0.4,2.3,0.4c1,0,1.4,0.1,4,0.1c2.6,0,2.9,0,4-0.1c1,0,1.7-0.2,2.3-0.4
			c0.6-0.2,1.2-0.6,1.7-1.1c0.5-0.5,0.9-1.1,1.1-1.7c0.2-0.6,0.4-1.3,0.4-2.3c0-1,0.1-1.4,0.1-4c0-2.6,0-2.9-0.1-4
			c0-1-0.2-1.7-0.4-2.3c-0.2-0.6-0.6-1.2-1.1-1.7c-0.5-0.5-1.1-0.9-1.7-1.1C24.7,9.7,24,9.5,23,9.5C21.9,9.4,21.6,9.4,19,9.4L19,9.4
			z M18.1,11.1c0.3,0,0.5,0,0.9,0c2.6,0,2.9,0,3.9,0.1c0.9,0,1.4,0.2,1.8,0.3c0.4,0.2,0.8,0.4,1.1,0.7c0.3,0.3,0.5,0.7,0.7,1.1
			c0.1,0.3,0.3,0.8,0.3,1.8c0,1,0.1,1.3,0.1,3.9s0,2.9-0.1,3.9c0,0.9-0.2,1.4-0.3,1.8c-0.2,0.4-0.4,0.8-0.7,1.1
			c-0.3,0.3-0.7,0.5-1.1,0.7c-0.3,0.1-0.8,0.3-1.8,0.3c-1,0-1.3,0.1-3.9,0.1c-2.6,0-2.9,0-3.9-0.1c-0.9,0-1.4-0.2-1.8-0.3
			c-0.4-0.2-0.8-0.4-1.1-0.7c-0.3-0.3-0.5-0.7-0.7-1.1c-0.1-0.3-0.3-0.8-0.3-1.8c0-1-0.1-1.3-0.1-3.9s0-2.9,0.1-3.9
			c0-0.9,0.2-1.4,0.3-1.8c0.2-0.4,0.4-0.8,0.7-1.1c0.3-0.3,0.7-0.5,1.1-0.7c0.3-0.1,0.8-0.3,1.8-0.3C16,11.1,16.4,11.1,18.1,11.1
			L18.1,11.1z M24.1,12.7c-0.6,0-1.2,0.5-1.2,1.2c0,0.6,0.5,1.2,1.2,1.2c0.6,0,1.2-0.5,1.2-1.2C25.3,13.2,24.8,12.7,24.1,12.7
			L24.1,12.7z M19,14.1c-2.7,0-4.9,2.2-4.9,4.9c0,2.7,2.2,4.9,4.9,4.9c2.7,0,4.9-2.2,4.9-4.9C23.9,16.3,21.7,14.1,19,14.1L19,14.1z
			 M19,15.8c1.8,0,3.2,1.4,3.2,3.2c0,1.8-1.4,3.2-3.2,3.2c-1.8,0-3.2-1.4-3.2-3.2C15.8,17.2,17.2,15.8,19,15.8z"/>
</svg>
